!!!!SEGMENT: Snf0248-Sancta_et_immaculata_virginitas_II--Zwickau_1676_1788
!!!id: Snf0248
!!!AGN: Motet
!!!SCT: Edwards, Gasch, Tröster (2022)
!!!voices: 4
!!!COM: Ludwig Senfl
!!!OTL: Sancta et immaculata virginitas II (Zwickau 1676-1788)
**kern	**text	**kern	**text	**kern	**text
*part3	*part3	*part2	*part2	*part1	*part1
*staff3	*staff3	*staff2	*staff2	*staff1	*staff1
*I"Bassus	*	*I"Tenor	*	*I"Superius	*
*I'B	*	*I'T	*	*I'S	*
*clefF4	*	*clefGv2	*	*clefG2	*
*k[b-]	*	*k[b-]	*	*k[b-]	*
*F:	*	*F:	*	*F:	*
*M2/1	*	*M2/1	*	*M2/1	*
*met(C|)	*	*met(C|)	*	*met(C|)	*
=1	=1	=1	=1	=1	=1
!	!	!	!	!LO:TX:a:t=Altus not extant	!
!!section: Prima pars: Sancta et immaculata virginitas
!!!OMD: Prima pars: Sancta et immaculata virginitas
0r	.	0r	.	0r	.
=1	=1	=1	=1	=1	=1
0r	.	0r	.	0r	.
=2	=2	=2	=2	=2	=2
0F	San-	0r	.	0r	.
=3	=3	=3	=3	=3	=3
1E	-cta	0r	.	0r	.
1F	.	.	.	.	.
=4	=4	=4	=4	=4	=4
1.D	.	0F	San-	0r	.
4C	.	.	.	.	.
4BB-y	.	.	.	.	.
=5	=5	=5	=5	=5	=5
1C	.	1E	-cta	0r	.
1D	.	1F	.	.	.
=6	=6	=6	=6	=6	=6
0BB-y	.	0D	.	0f	San-
=7	=7	=7	=7	=7	=7
1C	.	1r	.	1e	-cta
2r	.	1D	et	1f	.
[2BB-y	et	.	.	.	.
=8	=8	=8	=8	=8	=8
2BB-]	.	1D	im-	[0d	.
2GG	im-	.	.	.	.
2D	-ma-	1F	-ma-	.	.
2D	-cu-	.	.	.	.
=9	=9	=9	=9	=9	=9
1D	-la-	1F	-cu-	0d_	.
1GG	-ta,	1G	.	.	.
=10	=10	=10	=10	=10	=10
2r	.	1G	-la-	0d_	.
2GG	im-	.	.	.	.
2D	-ma-	1F	.	.	.
2D	-cu-	.	.	.	.
=11	=11	=11	=11	=11	=11
2.GG	-la-	0G	-ta	0d]	.
4AA	.	.	.	.	.
2BB-y	.	.	.	.	.
2GG	-ta	.	.	.	.
=12	=12	=12	=12	=12	=12
1C	vir-	1G	vir-	0r	.
1AA	.	1A	.	.	.
=13	=13	=13	=13	=13	=13
1D	-gi-	1F	-gi-	1r	.
2.GG	.	1G	-ni-	1d	et
4AA	.	.	.	.	.
=14	=14	=14	=14	=14	=14
2.BB-y	.	1F	.	1d	im-
4C	.	.	.	.	.
2.D	.	1F	-tas,	1f	-ma-
4E	.	.	.	.	.
=15	=15	=15	=15	=15	=15
1F	.	0r	.	1f	-cu-
4C	.	.	.	1g	.
4D	.	.	.	.	.
4E	.	.	.	.	.
4F	.	.	.	.	.
=16	=16	=16	=16	=16	=16
2G	.	0r	.	1g	-la-
2E	.	.	.	.	.
1D	-ni-	.	.	1f	.
=17	=17	=17	=17	=17	=17
1C	-tas,	1r	.	[0g	-ta
2r	.	1G	et	.	.
[2C	vir-	.	.	.	.
=18	=18	=18	=18	=18	=18
4C]	.	1G	im-	0g_	.
4D	.	.	.	.	.
4E	.	.	.	.	.
4F	.	.	.	.	.
2G	-gi-	1B-y	-ma-	.	.
2GG	-ni-	.	.	.	.
=19	=19	=19	=19	=19	=19
1G	-tas,	1B-y	-cu-	0g]	.
2r	.	1c	.	.	.
[2C	vir-	.	.	.	.
=20	=20	=20	=20	=20	=20
4C]	.	1c	-la-	1r	.
4D	.	.	.	.	.
4E	.	.	.	.	.
4F	.	.	.	.	.
1G	.	1B-y	.	1g	vir-
=21	=21	=21	=21	=21	=21
0F	-gi-	[0c	-ta	1a	.
.	.	.	.	1f	-gi-
=22	=22	=22	=22	=22	=22
1C	-ni-	0c]	.	1g	-ni-
1F	-tas,	.	.	[1f	-tas,
=23	=23	=23	=23	=23	=23
2.BB-y	vir-	0r	.	1f]	.
4C	.	.	.	.	.
4D	.	.	.	1f	qui-
4E	.	.	.	.	.
[2F	.	.	.	.	.
=24	=24	=24	=24	=24	=24
2F]	.	0c	vir-	1g	-bus
2E	.	.	.	.	.
[1F	-gi-	.	.	1a	.
=25	=25	=25	=25	=25	=25
2F]	.	0d	.	0a	te
2D	-ni-	.	.	.	.
1D	-tas,	.	.	.	.
=26	=26	=26	=26	=26	=26
1G	qui-	1B-y	-gi-	0g	.
1C	.	1c	-ni-	.	.
=27	=27	=27	=27	=27	=27
1G	-bus	0B-y	-tas,	1r	.
2r	.	.	.	1b-y	lau-
2G	te	.	.	.	.
=28	=28	=28	=28	=28	=28
2A	lau-	0r	.	1a	-di-
2F	.	.	.	.	.
2G	.	.	.	1g	-bus
[2C	.	.	.	.	.
=29	=29	=29	=29	=29	=29
4C]	.	0r	.	1g	ef-
4D	.	.	.	.	.
2E	.	.	.	.	.
2D	.	.	.	1f	.
2F	.	.	.	.	.
=30	=30	=30	=30	=30	=30
1E	.	1r	.	1g	-fe-
1D	-di-	1F	qui-	1a	-ram
=31	=31	=31	=31	=31	=31
1GG	-bus,	1G	-bus	0r	.
2r	.	1A	.	.	.
2D	qui-	.	.	.	.
=32	=32	=32	=32	=32	=32
2D	-bus	1A	te	1f	ne-
2D	te	.	.	.	.
2E-X	lau-	1G	.	1g	-sci-
2E-i	-di-	.	.	.	.
=33	=33	=33	=33	=33	=33
1BB-y	-bus	1B-y	lau-	0f	-o,
2D	ef-	1A	-di-	.	.
2D	-fe-	.	.	.	.
=34	=34	=34	=34	=34	=34
2GG	-ram	1G	-bus	0r	.
2.C	ne-	.	.	.	.
.	.	1G	ef-	.	.
4BB-y	.	.	.	.	.
2GG	.	.	.	.	.
=35	=35	=35	=35	=35	=35
2AA	.	1F	.	0r	.
2BB-y	.	.	.	.	.
1GG	-sci-	1G	-fe-	.	.
=36	=36	=36	=36	=36	=36
1FF	-o:	0A	-ram	0f	ne-
1F	.	.	.	.	.
=37	=37	=37	=37	=37	=37
0E	.	0r	.	0g	-sci-
=38	=38	=38	=38	=38	=38
[0D	.	0r	.	0f	-o:
=39	=39	=39	=39	=39	=39
0D]	.	0F	ne-	0f	qui-
=40	=40	=40	=40	=40	=40
0GG	.	0G	-sci-	0d	.
=41	=41	=41	=41	=41	=41
[0D	.	0F	-o:	[0f	-a
=42	=42	=42	=42	=42	=42
1D]	.	1F	qui-	0f]	.
[1BB-y	qui-	1D	.	.	.
=43	=43	=43	=43	=43	=43
2BB-]	.	1F	-a	0r	.
2AA	.	.	.	.	.
1GG	-a	1G	quem	.	.
=44	=44	=44	=44	=44	=44
1r	.	0A	cae-	0r	.
1FF	quem	.	.	.	.
=45	=45	=45	=45	=45	=45
1C	cae-	0G	-li	1r	.
1C	-li,	.	.	1g	quem
=46	=46	=46	=46	=46	=46
1r	.	1F	ca-	0a	cae-
1FF	[quem	1F	-pe-	.	.
=47	=47	=47	=47	=47	=47
1C	cae-	1G	.	[0g	-li
1C	-li,]	1G	-re,	.	.
=48	=48	=48	=48	=48	=48
1r	.	1r	.	0g]	.
1GG	[quem	1G	quem	.	.
=49	=49	=49	=49	=49	=49
1D	cae-	0A	cae-	1f	ca-
1D	-li,]	.	.	1f	-pe-
=50	=50	=50	=50	=50	=50
1r	.	0G	-li	1g	.
1GG	[quem	.	.	1g	-re
=51	=51	=51	=51	=51	=51
1D	cae-	1F	ca-	0r	.
1D	-li,]	1F	-pe-	.	.
=52	=52	=52	=52	=52	=52
1r	.	1G	.	1r	.
2r	.	1G	-re	1g	non
2GG	quem	.	.	.	.
=53	=53	=53	=53	=53	=53
2D	cae-	1r	.	1a	.
2D	-li	.	.	.	.
2C	ca-	1G	non	1r	.
2BB-y	-pe-	.	.	.	.
=54	=54	=54	=54	=54	=54
2AA	-re	1A	.	2r	.
2D	non	.	.	1f	po-
2D	po-	2r	.	.	.
2D	-te-	[2F	po-	2f	-te-
=55	=55	=55	=55	=55	=55
0BB-y	-rant,	2F]	.	1d	-rant,
.	.	2F	-te-	.	.
.	.	1D	-rant,	1f	.
=56	=56	=56	=56	=56	=56
0r	.	1F	.	0c	.
.	.	[1C	.	.	.
=57	=57	=57	=57	=57	=57
2r	.	1C]	.	1g	non
2C	[non	.	.	.	.
2F	po-	1c	non	1a	.
2F	-te-	.	.	.	.
=58	=58	=58	=58	=58	=58
[0BB-y	-rant,]	1d	.	1f	po-
.	.	2r	.	1f	-te-
.	.	[2B-y	po-	.	.
=59	=59	=59	=59	=59	=59
1BB-]	.	2B-]	.	[0d	-rant,
.	.	2B-y	-te-	.	.
1r	.	1G	-rant,	.	.
=60	=60	=60	=60	=60	=60
2r	.	1B-y	.	0d_	.
1BB-y	po-	.	.	.	.
.	.	1F	.	.	.
2BB-y	-te-	.	.	.	.
=61	=61	=61	=61	=61	=61
1GG	-rant,	1r	.	0d]	.
1BB-y	.	2r	.	.	.
.	.	[2F	po-	.	.
=62	=62	=62	=62	=62	=62
1FF	.	2F]	.	0f	.
.	.	2F	-te-	.	.
1r	.	1D	-rant,	.	.
=63	=63	=63	=63	=63	=63
2r	.	1F	.	0c	.
1FF	tu-	.	.	.	.
.	.	1C	.	.	.
2FF	-o	.	.	.	.
=64	=64	=64	=64	=64	=64
4FF	gre-	1C	tu-	0r	.
4GG	.	.	.	.	.
4AA	.	.	.	.	.
4FF	.	.	.	.	.
2BB-y	.	1D	.	.	.
2BB-y	-mi-	.	.	.	.
=65	=65	=65	=65	=65	=65
1FF	-o,	1F	-o	1c	tu-
2r	.	1D	.	1d	.
[2BB-y	gre-	.	.	.	.
=66	=66	=66	=66	=66	=66
4BB-]	.	0r	.	1f	-o
4C	.	.	.	.	.
4D	.	.	.	.	.
4E	.	.	.	.	.
2F	.	.	.	1d	.
2G	.	.	.	.	.
=67	=67	=67	=67	=67	=67
2.C	.	1E	gre-	0r	.
4BB-y	.	.	.	.	.
1AA	-mi-	1F	-mi-	.	.
=68	=68	=68	=68	=68	=68
1GG	-o	1G	.	1r	.
2C	con-	1G	-o	1e	gre-
2C	-tu-	.	.	.	.
=69	=69	=69	=69	=69	=69
1D	-li-	1F	.	1f	-mi-
1C	-sti,	1r	.	1g	.
=70	=70	=70	=70	=70	=70
0r	.	1c	con-	0g	-o
.	.	1c	-tu-	.	.
=71	=71	=71	=71	=71	=71
2r	.	1d	.	[0f	.
1BB-y	con-	.	.	.	.
.	.	1c	.	.	.
2AA	-tu-	.	.	.	.
=72	=72	=72	=72	=72	=72
1.BB-y	-li-	2.B-y	-li-	0f_	.
.	.	4A	.	.	.
.	.	2B-y	.	.	.
2FF	.	[2c	.	.	.
=73	=73	=73	=73	=73	=73
2AA	.	2c]	.	0f]	.
2BB-y	.	1B-y	.	.	.
1F	.	.	.	.	.
.	.	2A	.	.	.
=74	=74	=74	=74	=74	=74
1E-X	.	0B-y	-sti,	1g	con-
1G	.	.	.	1g	-tu-
=75	=75	=75	=75	=75	=75
1F	.	2r	.	1a	.
.	.	2.c	con-	.	.
1E	.	.	.	1g	.
.	.	4B-y	.	.	.
.	.	2c	.	.	.
=76	=76	=76	=76	=76	=76
1BB-y	-sti,	2d	-tu-	2.f	-li-
.	.	2.B-y	-li-	.	.
.	.	.	.	4e	.
2r	.	.	.	2f	.
.	.	4A	.	.	.
2E-i	[con-	2B-y	.	[2g	.
=77	=77	=77	=77	=77	=77
2C	-tu-	2c	.	2g]	.
2D	.	2F	.	1f	.
1C	-li-	1G	.	.	.
.	.	.	.	2e	.
=78	=78	=78	=78	=78	=78
00FFl	-sti.]	00Fl	-sti.	00fl	-sti.
==	==	==	==	==	==
*-	*-	*-	*-	*-	*-
!!!system-decoration: [*]
!!!RDF**kern: i = editorial accidental
!!!RDF**kern: l = terminal long
!!!!PTL: <i> New Senfl Edition: Motets for Four Voices (N-V) </i>
!!!PPR: Hollitzer Verlag
!!!PC#: Denkmäler der Tonkunst in Österreich 163.2
!!!PDT: 2022
!!!PED: Scott Lee Edwards, Stefan Gasch, and Sonja Tröster
!!!YEC: Copyright 2022 Denkmäler der Tonkunst in Österreich
!!!YEM: CC-BY-NC 4.0 (https://creativecommons.org/licenses/by-nc/4.0/legalcode)
!!!EED: Benjamin Ory
!!!EEV: 2024/3/2
!!!verovio: header true
!!!header-left: @{PTL}\n@{PED}, eds.\n@{PC#} (@{PDT})&nbsp;\n
!!!header-right:
!!!header-center: